X:1
T:The Canny Miner Lad
M:4/4
L:1/8
K:Eb
G-F| E2 CCC-D EF| G2 GG c3 c/2c/2| d2 F2F-G FD|B,-CD-E F2| GF| E2 CCC-D EF|\
 G2 G2 c2 cc| B2 FF GF ED| C2 C4||
